src/Icon/svgs/AlertCircleOutline.svg

<svg width="24" height="24" viewBox="0 0 24 24" fill="none" xmlns="http://www.w3.org/2000/svg">
<path fill-rule="evenodd" clip-rule="evenodd" d="M13 13.5V7.5H11V13.5H13ZM13 16.5V14.5H11V16.5H13Z" fill="#1B1C1D"/>
<path fill-rule="evenodd" clip-rule="evenodd" d="M12 21C16.9706 21 21 16.9706 21 12C21 7.02944 16.9706 3 12 3C7.02944 3 3 7.02944 3 12C3 16.9706 7.02944 21 12 21ZM12 23C18.0751 23 23 18.0751 23 12C23 5.92487 18.0751 1 12 1C5.92487 1 1 5.92487 1 12C1 18.0751 5.92487 23 12 23Z" fill="#1B1C1D"/>
</svg>

<svg xmlns="http://www.w3.org/2000/svg" width="24" height="24" fill="#1b1c1d"  fill-rule="evenodd" xmlns:v="https://vecta.io/nano"><path d="M13 13.5v-6h-2v6h2zm0 3v-2h-2v2h2zM12 21a9 9 0 1 0 0-18 9 9 0 1 0 0 18zm0 2c6.075 0 11-4.925 11-11S18.075 1 12 1 1 5.925 1 12s4.925 11 11 11z"/></svg>
